X: 62
T: Great Big Taters in Sandy Land
B: canberra pickers and fiddlers
B: old time tunes update
B: tunes
M:4/4
L:1/8
R: reel
Q: 1/4=100
K:A
V:1 
fg |:"A"a2 ab afe2 |"D"f3g (3f=gf f2-| fefa fec2 |"A"[e3e]e e4 :|
   |:"A"eAcA BABA | c3c c2cd | eAcA "E"BcB2 | [1"A" A3 AA2 cd:| [2"A"A3A A4||
   |:"A"E2Ac BAB2 | {=c}^c3c c2c2 | E2Ac "E"BAFG |"A"A3A A2A2 :|
% abcbook-tune_id 67a7d9ec9d80d1be3147438d
% abcbook-tune_composer_id 
% abcbook-link-0 https://www.youtube.com/watch?v=KLqkYIRmvu0
% abcbook-link-title-0 Great Big Taters In Sandy Land
% abcbook-boost 0
% abcbook-difficulty 0
% abcbook-tags old time tunes
% abcbook-tablature 
% abcbook-transpose 
% abcbook-tuning AEAE
% abcbook-lastupdated 1739164532938
% abcbook-src-url 
% abcbook-soundfonts 
% abcbook-repeats 1


